X:952
T:Añada (CT 266)
R:Añada
C:Tradicional
S:Música Tradicional Asturiana, (C) Tello & Tito. Asturies, 2001.
S:http://pagina.de/MusTradAst <telloytito@asturies.org>
N:Canción de cuna (Añada), transcrita en Grau.
O:Grau
A:Asturies
Z:Cancioneru de Torner 266
M:6/8
L:1/8
Q:3/8=80
W:Duérmite, niñín de l'alma,
W:duérmi que te velo yo;
W:Dios te dé muncha ventura
W:nesti mundu engañador.
W:Nun llores, nin,
W:nun llores, non;
W:duermi, que te velo yo.
K:G
|GGG GBB|(cd/4c/4B/4A/4B) B3|d(c3/4B/4)A Bcc|
B6|cBA GBG|(A3/2(3B/4A/4G/4 F) F3|GGG cBA|
G2z BAG|G3 BAG|F6|GGA cBA|G3- G2z||


